X:1
T:Johnny Doyle
M:2/2
L:1/4
K:G
 z2 z E| F2 D- F| A2 F A| B2 e B| d3 ^c| B2 A B| F E D E| F A A F|\
 E3 E| F F D F/2F/2| A A F A| B2 e B| d3 ^c| B2 A B| F- E D E| F- A A F|\
 E3 z|
